Numix-Circle/48x48/apps/tictactoe.svg

<?xml version="1.0" encoding="UTF-8" standalone="no"?>
<svg
   xmlns:dc="http://purl.org/dc/elements/1.1/"
   xmlns:cc="http://creativecommons.org/ns#"
   xmlns:rdf="http://www.w3.org/1999/02/22-rdf-syntax-ns#"
   xmlns:svg="http://www.w3.org/2000/svg"
   xmlns="http://www.w3.org/2000/svg"
   xmlns:sodipodi="http://sodipodi.sourceforge.net/DTD/sodipodi-0.dtd"
   xmlns:inkscape="http://www.inkscape.org/namespaces/inkscape"
   viewBox="0 0 48 48"
   id="svg2"
   version="1.1"
   inkscape:version="0.48.5 r10040"
   width="100%"
   height="100%"
   sodipodi:docname="tictactoe.svg">
  <metadata
     id="metadata61">
    <rdf:RDF>
      <cc:Work
         rdf:about="">
        <dc:format>image/svg+xml</dc:format>
        <dc:type
           rdf:resource="http://purl.org/dc/dcmitype/StillImage" />
      </cc:Work>
    </rdf:RDF>
  </metadata>
  <sodipodi:namedview
     pagecolor="#ffffff"
     bordercolor="#666666"
     borderopacity="1"
     objecttolerance="10"
     gridtolerance="10"
     guidetolerance="10"
     inkscape:pageopacity="0"
     inkscape:pageshadow="2"
     inkscape:window-width="1280"
     inkscape:window-height="998"
     id="namedview59"
     showgrid="true"
     inkscape:zoom="19.666667"
     inkscape:cx="27.568367"
     inkscape:cy="26.691753"
     inkscape:window-x="0"
     inkscape:window-y="0"
     inkscape:window-maximized="1"
     inkscape:current-layer="svg2">
    <inkscape:grid
       type="xygrid"
       id="grid3040" />
  </sodipodi:namedview>
  <defs
     id="defs4">
    <linearGradient
       id="linearGradient3764"
       x1="1"
       x2="47"
       gradientUnits="userSpaceOnUse"
       gradientTransform="matrix(0,-1,1,0,-1.5e-6,47.999998)">
      <stop
         stop-color="#734115"
         stop-opacity="1"
         id="stop7" />
      <stop
         offset="1"
         stop-color="#834a18"
         stop-opacity="1"
         id="stop9" />
    </linearGradient>
    <clipPath
       id="clipPath-583269473">
      <g
         transform="translate(0,-1004.3622)"
         id="g12">
        <path
           d="m -24 13 c 0 1.105 -0.672 2 -1.5 2 -0.828 0 -1.5 -0.895 -1.5 -2 0 -1.105 0.672 -2 1.5 -2 0.828 0 1.5 0.895 1.5 2 z"
           transform="matrix(15.333333,0,0,11.5,414.99999,878.8622)"
           fill="#1890d0"
           id="path14" />
      </g>
    </clipPath>
    <clipPath
       id="clipPath-592114570">
      <g
         transform="translate(0,-1004.3622)"
         id="g17">
        <path
           d="m -24 13 c 0 1.105 -0.672 2 -1.5 2 -0.828 0 -1.5 -0.895 -1.5 -2 0 -1.105 0.672 -2 1.5 -2 0.828 0 1.5 0.895 1.5 2 z"
           transform="matrix(15.333333,0,0,11.5,414.99999,878.8622)"
           fill="#1890d0"
           id="path19" />
      </g>
    </clipPath>
    <clipPath
       clipPathUnits="userSpaceOnUse"
       id="clipPath3055">
      <rect
         style="fill:#000000;fill-opacity:0.11764706;fill-rule:nonzero;stroke:none"
         id="rect3057"
         width="46"
         height="46"
         x="152"
         y="65" />
    </clipPath>
  </defs>
  <g
     id="g21">
    <path
       d="m 36.31 5 c 5.859 4.062 9.688 10.831 9.688 18.5 c 0 12.426 -10.07 22.5 -22.5 22.5 c -7.669 0 -14.438 -3.828 -18.5 -9.688 c 1.037 1.822 2.306 3.499 3.781 4.969 c 4.085 3.712 9.514 5.969 15.469 5.969 c 12.703 0 23 -10.298 23 -23 c 0 -5.954 -2.256 -11.384 -5.969 -15.469 c -1.469 -1.475 -3.147 -2.744 -4.969 -3.781 z m 4.969 3.781 c 3.854 4.113 6.219 9.637 6.219 15.719 c 0 12.703 -10.297 23 -23 23 c -6.081 0 -11.606 -2.364 -15.719 -6.219 c 4.16 4.144 9.883 6.719 16.219 6.719 c 12.703 0 23 -10.298 23 -23 c 0 -6.335 -2.575 -12.06 -6.719 -16.219 z"
       opacity="0.05"
       id="path23" />
    <path
       d="m 41.28 8.781 c 3.712 4.085 5.969 9.514 5.969 15.469 c 0 12.703 -10.297 23 -23 23 c -5.954 0 -11.384 -2.256 -15.469 -5.969 c 4.113 3.854 9.637 6.219 15.719 6.219 c 12.703 0 23 -10.298 23 -23 c 0 -6.081 -2.364 -11.606 -6.219 -15.719 z"
       opacity="0.1"
       id="path25" />
    <path
       d="m 31.25 2.375 c 8.615 3.154 14.75 11.417 14.75 21.13 c 0 12.426 -10.07 22.5 -22.5 22.5 c -9.708 0 -17.971 -6.135 -21.12 -14.75 a 23 23 0 0 0 44.875 -7 a 23 23 0 0 0 -16 -21.875 z"
       opacity="0.2"
       id="path27" />
  </g>
  <g
     id="g29">
    <path
       d="m 24 1 c 12.703 0 23 10.297 23 23 c 0 12.703 -10.297 23 -23 23 -12.703 0 -23 -10.297 -23 -23 0 -12.703 10.297 -23 23 -23 z"
       fill="url(#linearGradient3764)"
       fill-opacity="1"
       id="path31" />
  </g>
  <path
     id="path3941"
     d="m 20,13 0,7 -7,0 0,1 7,0 0,8 -7,0 0,1 7,0 0,7 1,0 0,-7 8,0 0,7 1,0 0,-7 7,0 0,-1 -7,0 0,-8 7,0 0,-1 -7,0 0,-7 -1,0 0,7 -8,0 0,-7 -1,0 z m -5.65625,0.65625 -0.6875,0.6875 2.15625,2.15625 -2.15625,2.15625 0.6875,0.6875 2.15625,-2.15625 2.15625,2.15625 0.6875,-0.6875 L 17.1875,16.5 19.34375,14.34375 18.65625,13.65625 16.5,15.8125 14.34375,13.65625 z M 21,21 l 8,0 0,8 -8,0 0,-8 z m 4,1 c -1.656854,0 -3,1.343146 -3,3 0,1.656854 1.343146,3 3,3 1.656854,0 3,-1.343146 3,-3 0,-1.656854 -1.343146,-3 -3,-3 z m 0,1 c 1.104569,0 2,0.895431 2,2 0,1.104569 -0.895431,2 -2,2 -1.104569,0 -2,-0.895431 -2,-2 0,-1.104569 0.895431,-2 2,-2 z m -10.65625,7.65625 -0.6875,0.6875 2.15625,2.15625 -2.15625,2.15625 0.6875,0.6875 2.15625,-2.15625 2.15625,2.15625 0.6875,-0.6875 L 17.1875,33.5 19.34375,31.34375 18.65625,30.65625 16.5,32.8125 14.34375,30.65625 z M 34,31 c -1.656854,0 -3,1.343146 -3,3 0,1.656854 1.343146,3 3,3 1.656854,0 3,-1.343146 3,-3 0,-1.656854 -1.343146,-3 -3,-3 z m 0,1 c 1.104569,0 2,0.895431 2,2 0,1.104569 -0.895431,2 -2,2 -1.104569,0 -2,-0.895431 -2,-2 0,-1.104569 0.895431,-2 2,-2 z"
     style="fill:#000000;fill-opacity:0.11764706;fill-rule:nonzero;stroke:none"
     inkscape:connector-curvature="0" />
  <g
     id="g33" />
  <g
     id="g55">
    <path
       d="m 40.03 7.531 c 3.712 4.084 5.969 9.514 5.969 15.469 0 12.703 -10.297 23 -23 23 c -5.954 0 -11.384 -2.256 -15.469 -5.969 4.178 4.291 10.01 6.969 16.469 6.969 c 12.703 0 23 -10.298 23 -23 0 -6.462 -2.677 -12.291 -6.969 -16.469 z"
       opacity="0.1"
       id="path57" />
  </g>
  <path
     style="fill:#e4d9cf;fill-opacity:1;fill-rule:nonzero;stroke:none"
     d="M 19 12 L 19 19 L 12 19 L 12 20 L 19 20 L 19 28 L 12 28 L 12 29 L 19 29 L 19 36 L 20 36 L 20 29 L 28 29 L 28 36 L 29 36 L 29 29 L 36 29 L 36 28 L 29 28 L 29 20 L 36 20 L 36 19 L 29 19 L 29 12 L 28 12 L 28 19 L 20 19 L 20 12 L 19 12 z M 13.34375 12.65625 L 12.65625 13.34375 L 14.8125 15.5 L 12.65625 17.65625 L 13.34375 18.34375 L 15.5 16.1875 L 17.65625 18.34375 L 18.34375 17.65625 L 16.1875 15.5 L 18.34375 13.34375 L 17.65625 12.65625 L 15.5 14.8125 L 13.34375 12.65625 z M 20 20 L 28 20 L 28 28 L 20 28 L 20 20 z M 24 21 C 22.343146 21 21 22.343146 21 24 C 21 25.656854 22.343146 27 24 27 C 25.656854 27 27 25.656854 27 24 C 27 22.343146 25.656854 21 24 21 z M 24 22 C 25.104569 22 26 22.895431 26 24 C 26 25.104569 25.104569 26 24 26 C 22.895431 26 22 25.104569 22 24 C 22 22.895431 22.895431 22 24 22 z M 13.34375 29.65625 L 12.65625 30.34375 L 14.8125 32.5 L 12.65625 34.65625 L 13.34375 35.34375 L 15.5 33.1875 L 17.65625 35.34375 L 18.34375 34.65625 L 16.1875 32.5 L 18.34375 30.34375 L 17.65625 29.65625 L 15.5 31.8125 L 13.34375 29.65625 z M 33 30 C 31.343146 30 30 31.343146 30 33 C 30 34.656854 31.343146 36 33 36 C 34.656854 36 36 34.656854 36 33 C 36 31.343146 34.656854 30 33 30 z M 33 31 C 34.104569 31 35 31.895431 35 33 C 35 34.104569 34.104569 35 33 35 C 31.895431 35 31 34.104569 31 33 C 31 31.895431 31.895431 31 33 31 z "
     id="rect3059" />
</svg>

<svg xmlns="http://www.w3.org/2000/svg" viewBox="0 0 48 48"><defs><linearGradient id="linearGradient3764" x1="1" x2="47" gradientUnits="userSpaceOnUse" gradientTransform="matrix(0,-1,1,0,-1.5e-6,47.999998)"><stop stop-color="#734115" stop-opacity="1"/><stop offset="1" stop-color="#834a18" stop-opacity="1"/></linearGradient><clipPath><g transform="translate(0,-1004.3622)"><path d="m -24 13 c 0 1.105 -0.672 2 -1.5 2 -0.828 0 -1.5 -0.895 -1.5 -2 0 -1.105 0.672 -2 1.5 -2 0.828 0 1.5 0.895 1.5 2 z" transform="matrix(15.333333,0,0,11.5,414.99999,878.8622)" fill="#1890d0"/></g></clipPath><clipPath><g transform="translate(0,-1004.3622)"><path d="m -24 13 c 0 1.105 -0.672 2 -1.5 2 -0.828 0 -1.5 -0.895 -1.5 -2 0 -1.105 0.672 -2 1.5 -2 0.828 0 1.5 0.895 1.5 2 z" transform="matrix(15.333333,0,0,11.5,414.99999,878.8622)" fill="#1890d0"/></g></clipPath><clipPath clipPathUnits="userSpaceOnUse"><rect width="46" height="46" x="152" y="65" fill="#000" fill-rule="nonzero" stroke="none" fill-opacity="0.118"/></clipPath></defs><g><path d="m 36.31 5 c 5.859 4.062 9.688 10.831 9.688 18.5 c 0 12.426 -10.07 22.5 -22.5 22.5 c -7.669 0 -14.438 -3.828 -18.5 -9.688 c 1.037 1.822 2.306 3.499 3.781 4.969 c 4.085 3.712 9.514 5.969 15.469 5.969 c 12.703 0 23 -10.298 23 -23 c 0 -5.954 -2.256 -11.384 -5.969 -15.469 c -1.469 -1.475 -3.147 -2.744 -4.969 -3.781 z m 4.969 3.781 c 3.854 4.113 6.219 9.637 6.219 15.719 c 0 12.703 -10.297 23 -23 23 c -6.081 0 -11.606 -2.364 -15.719 -6.219 c 4.16 4.144 9.883 6.719 16.219 6.719 c 12.703 0 23 -10.298 23 -23 c 0 -6.335 -2.575 -12.06 -6.719 -16.219 z" opacity="0.05"/><path d="m 41.28 8.781 c 3.712 4.085 5.969 9.514 5.969 15.469 c 0 12.703 -10.297 23 -23 23 c -5.954 0 -11.384 -2.256 -15.469 -5.969 c 4.113 3.854 9.637 6.219 15.719 6.219 c 12.703 0 23 -10.298 23 -23 c 0 -6.081 -2.364 -11.606 -6.219 -15.719 z" opacity="0.1"/><path d="m 31.25 2.375 c 8.615 3.154 14.75 11.417 14.75 21.13 c 0 12.426 -10.07 22.5 -22.5 22.5 c -9.708 0 -17.971 -6.135 -21.12 -14.75 a 23 23 0 0 0 44.875 -7 a 23 23 0 0 0 -16 -21.875 z" opacity="0.2"/></g><g><path d="m 24 1 c 12.703 0 23 10.297 23 23 c 0 12.703 -10.297 23 -23 23 -12.703 0 -23 -10.297 -23 -23 0 -12.703 10.297 -23 23 -23 z" fill="url(#linearGradient3764)" fill-opacity="1"/></g><path d="m 20 13 0 7 -7 0 0 1 7 0 0 8 -7 0 0 1 7 0 0 7 1 0 0 -7 8 0 0 7 1 0 0 -7 7 0 0 -1 -7 0 0 -8 7 0 0 -1 -7 0 0 -7 -1 0 0 7 -8 0 0 -7 -1 0 z m -5.656 0.656 -0.688 0.688 2.156 2.156 -2.156 2.156 0.688 0.688 2.156 -2.156 2.156 2.156 0.688 -0.688 l -2.156 -2.156 2.156 -2.156 -0.688 -0.688 -2.156 2.156 -2.156 -2.156 z m 6.656 7.344 l 8 0 0 8 -8 0 0 -8 z m 4 1 c -1.657 0 -3 1.343 -3 3 0 1.657 1.343 3 3 3 1.657 0 3 -1.343 3 -3 0 -1.657 -1.343 -3 -3 -3 z m 0 1 c 1.105 0 2 0.895 2 2 0 1.105 -0.895 2 -2 2 -1.105 0 -2 -0.895 -2 -2 0 -1.105 0.895 -2 2 -2 z m -10.656 7.656 -0.688 0.688 2.156 2.156 -2.156 2.156 0.688 0.688 2.156 -2.156 2.156 2.156 0.688 -0.688 l -2.156 -2.156 2.156 -2.156 -0.688 -0.688 -2.156 2.156 -2.156 -2.156 z m 19.656 0.344 c -1.657 0 -3 1.343 -3 3 0 1.657 1.343 3 3 3 1.657 0 3 -1.343 3 -3 0 -1.657 -1.343 -3 -3 -3 z m 0 1 c 1.105 0 2 0.895 2 2 0 1.105 -0.895 2 -2 2 -1.105 0 -2 -0.895 -2 -2 0 -1.105 0.895 -2 2 -2 z" fill="#000" fill-rule="nonzero" stroke="none" fill-opacity="0.118"/><g><path d="m 40.03 7.531 c 3.712 4.084 5.969 9.514 5.969 15.469 0 12.703 -10.297 23 -23 23 c -5.954 0 -11.384 -2.256 -15.469 -5.969 4.178 4.291 10.01 6.969 16.469 6.969 c 12.703 0 23 -10.298 23 -23 0 -6.462 -2.677 -12.291 -6.969 -16.469 z" opacity="0.1"/></g><path d="m 19 12 l 0 7 l -7 0 l 0 1 l 7 0 l 0 8 l -7 0 l 0 1 l 7 0 l 0 7 l 1 0 l 0 -7 l 8 0 l 0 7 l 1 0 l 0 -7 l 7 0 l 0 -1 l -7 0 l 0 -8 l 7 0 l 0 -1 l -7 0 l 0 -7 l -1 0 l 0 7 l -8 0 l 0 -7 l -1 0 z m -5.656 0.656 l -0.688 0.688 l 2.156 2.156 l -2.156 2.156 l 0.688 0.688 l 2.156 -2.156 l 2.156 2.156 l 0.688 -0.688 l -2.156 -2.156 l 2.156 -2.156 l -0.688 -0.688 l -2.156 2.156 l -2.156 -2.156 z m 6.656 7.344 l 8 0 l 0 8 l -8 0 l 0 -8 z m 4 1 c -1.657 0 -3 1.343 -3 3 c 0 1.657 1.343 3 3 3 c 1.657 0 3 -1.343 3 -3 c 0 -1.657 -1.343 -3 -3 -3 z m 0 1 c 1.105 0 2 0.895 2 2 c 0 1.105 -0.895 2 -2 2 c -1.105 0 -2 -0.895 -2 -2 c 0 -1.105 0.895 -2 2 -2 z m -10.656 7.656 l -0.688 0.688 l 2.156 2.156 l -2.156 2.156 l 0.688 0.688 l 2.156 -2.156 l 2.156 2.156 l 0.688 -0.688 l -2.156 -2.156 l 2.156 -2.156 l -0.688 -0.688 l -2.156 2.156 l -2.156 -2.156 z m 19.656 0.344 c -1.657 0 -3 1.343 -3 3 c 0 1.657 1.343 3 3 3 c 1.657 0 3 -1.343 3 -3 c 0 -1.657 -1.343 -3 -3 -3 z m 0 1 c 1.105 0 2 0.895 2 2 c 0 1.105 -0.895 2 -2 2 c -1.105 0 -2 -0.895 -2 -2 c 0 -1.105 0.895 -2 2 -2 z" fill="#e4d9cf" fill-rule="nonzero" stroke="none" fill-opacity="1"/></svg>
